;Generated with Cura_SteamEngine 15.01
; Default start code
G28 ; Home extruder
G1 Z15 F2000
M107 ; Turn off fan
G90 ; Absolute positioning
M82 ; Extruder in absolute mode
M104 T0 S210
M190 S80
; Activate all used extruder
G92 E0 ; Reset extruder position
; Wait for all used extruders to reach temperature
M109 T0 S210 R210
;Layer count: 35
;LAYER:0
M107
G0 F9000 X135.150 Y97.800 Z0.300
;TYPE:SKIRT
G1 F1800 X186.849 Y97.800 E2.57927
G1 X186.849 Y127.200 E4.04605
G1 X176.849 Y127.200 E4.54495
G1 X176.849 Y133.800 E4.87422
G1 X186.849 Y133.800 E5.37312
G1 X186.849 Y163.200 E6.83990
G1 X176.849 Y163.200 E7.33880
G1 X176.849 Y169.800 E7.66807
G1 X186.849 Y169.800 E8.16698
G1 X186.849 Y199.200 E9.63375
G1 X176.849 Y199.200 E10.13265
G1 X176.849 Y205.800 E10.46193
G1 X186.849 Y205.800 E10.96083
G1 X186.849 Y235.200 E12.42760
G1 X176.849 Y235.200 E12.92650
G1 X176.849 Y242.200 E13.27573
G1 X170.200 Y242.200 E13.60745
G1 X170.200 Y242.800 E13.63739
G1 X151.800 Y242.800 E14.55537
G1 X151.800 Y242.200 E14.58530
G1 X145.150 Y242.200 E14.91707
G1 X145.150 Y235.200 E15.26630
G1 X135.150 Y235.200 E15.76520
G1 X135.150 Y205.800 E17.23198
G1 X145.150 Y205.800 E17.73088
G1 X145.150 Y199.200 E18.06015
G1 X135.150 Y199.200 E18.55906
G1 X135.150 Y169.800 E20.02583
G1 X145.150 Y169.800 E20.52473
G1 X145.150 Y163.200 E20.85400
G1 X135.150 Y163.200 E21.35291
G1 X135.150 Y133.800 E22.81968
G1 X145.150 Y133.800 E23.31858
G1 X145.150 Y127.200 E23.64786
G1 X135.150 Y127.200 E24.14676
G1 X135.150 Y97.800 E25.61353
G0 F9000 X134.849 Y97.800
G1 F1800 X134.849 Y127.200 E27.08030
G1 X124.850 Y127.200 E27.57915
G1 X124.850 Y133.800 E27.90843
G1 X134.849 Y133.800 E28.40728
G1 X134.849 Y163.200 E29.87405
G1 X124.850 Y163.200 E30.37291
G1 X124.850 Y169.800 E30.70218
G1 X134.849 Y169.800 E31.20103
G1 X134.849 Y199.200 E32.66781
G1 X124.850 Y199.200 E33.16666
G1 X124.850 Y205.800 E33.49593
G1 X134.849 Y205.800 E33.99478
G1 X134.849 Y235.200 E35.46156
G1 X124.850 Y235.200 E35.96041
G1 X124.850 Y242.200 E36.30964
G1 X118.200 Y242.200 E36.64141
G1 X118.200 Y242.800 E36.67134
G1 X99.800 Y242.800 E37.58932
G1 X99.800 Y242.200 E37.61926
G1 X93.149 Y242.200 E37.95108
G1 X93.149 Y235.200 E38.30031
G1 X83.149 Y235.200 E38.79921
G1 X83.149 Y205.800 E40.26598
G1 X93.149 Y205.800 E40.76489
G1 X93.149 Y199.200 E41.09416
G1 X83.149 Y199.200 E41.59306
G1 X83.149 Y169.800 E43.05983
G1 X93.149 Y169.800 E43.55874
G1 X93.149 Y163.200 E43.88801
G1 X83.149 Y163.200 E44.38691
G1 X83.149 Y133.800 E45.85369
G1 X93.149 Y133.800 E46.35259
G1 X93.149 Y127.200 E46.68186
G1 X83.149 Y127.200 E47.18077
G1 X83.149 Y97.800 E48.64754
G1 X134.849 Y97.800 E51.22686
G1 F2400 E47.22686
G0 F9000 X131.049 Y101.600
;TYPE:WALL-INNER
G1 F2400 E51.22686
G1 F1800 X131.049 Y123.400 E52.31447
G1 X121.050 Y123.400 E52.81332
G1 X121.050 Y130.400 E53.16255
G1 X115.600 Y130.400 E53.43445
G1 X115.600 Y123.400 E53.78368
G1 X102.400 Y123.400 E54.44223
G1 X102.400 Y130.400 E54.79147
G1 X96.949 Y130.400 E55.06342
G1 X96.949 Y123.400 E55.41265
G1 X86.949 Y123.400 E55.91155
G1 X86.949 Y101.600 E56.99916
G1 X131.049 Y101.600 E59.19932
G0 F9000 X131.449 Y101.200
;TYPE:WALL-OUTER
G1 F1800 X131.449 Y123.800 E60.32683
G1 X121.450 Y123.800 E60.82569
G1 X121.450 Y130.800 E61.17492
G1 X115.200 Y130.800 E61.48673
G1 X115.200 Y123.800 E61.83596
G1 X102.800 Y123.800 E62.45460
G1 X102.800 Y130.800 E62.80383
G1 X96.549 Y130.800 E63.11570
G1 X96.549 Y123.800 E63.46493
G1 X86.549 Y123.800 E63.96383
G1 X86.549 Y101.200 E65.09135
G1 X131.449 Y101.200 E67.33142
G0 F9000 X130.968 Y101.835
;TYPE:SKIN
G1 F1800 X130.812 Y101.679 E67.34242
G0 F9000 X130.246 Y101.679
G1 F1800 X130.968 Y102.401 E67.39337
G0 F9000 X130.968 Y102.966
G1 F1800 X129.681 Y101.679 E67.48417
G0 F9000 X129.115 Y101.679
G1 F1800 X130.968 Y103.532 E67.61491
G0 F9000 X130.968 Y104.098
G1 F1800 X128.549 Y101.679 E67.78558
G0 F9000 X127.984 Y101.679
G1 F1800 X130.968 Y104.663 E67.99612
G0 F9000 X130.968 Y105.229
G1 F1800 X127.418 Y101.679 E68.24659
G0 F9000 X126.852 Y101.679
G1 F1800 X130.968 Y105.795 E68.53700
G0 F9000 X130.968 Y106.360
G1 F1800 X126.287 Y101.679 E68.86727
G0 F9000 X125.721 Y101.679
G1 F1800 X130.968 Y106.926 E69.23747
G0 F9000 X130.968 Y107.492
G1 F1800 X125.155 Y101.679 E69.64761
G0 F9000 X124.590 Y101.679
G1 F1800 X130.968 Y108.057 E70.09761
G0 F9000 X130.968 Y108.623
G1 F1800 X124.024 Y101.679 E70.58755
G0 F9000 X123.458 Y101.679
G1 F1800 X130.968 Y109.189 E71.11742
G0 F9000 X130.968 Y109.754
G1 F1800 X122.893 Y101.679 E71.68716
G0 F9000 X122.327 Y101.679
G1 F1800 X130.968 Y110.320 E72.29683
G0 F9000 X130.968 Y110.886
G1 F1800 X121.761 Y101.679 E72.94643
G0 F9000 X121.195 Y101.679
G1 F1800 X130.968 Y111.452 E73.63597
G0 F9000 X130.968 Y112.017
G1 F1800 X120.630 Y101.679 E74.36537
G0 F9000 X120.064 Y101.679
G1 F1800 X130.968 Y112.583 E75.13470
G0 F9000 X130.968 Y113.149
G1 F1800 X119.498 Y101.679 E75.94397
G0 F9000 X118.933 Y101.679
G1 F1800 X130.968 Y113.714 E76.79311
G0 F9000 X130.968 Y114.280
G1 F1800 X118.367 Y101.679 E77.68218
G0 F9000 X117.801 Y101.679
G1 F1800 X130.968 Y114.846 E78.61118
G0 F9000 X130.968 Y115.411
G1 F1800 X117.236 Y101.679 E79.58005
G0 F9000 X116.670 Y101.679
G1 F1800 X130.968 Y115.977 E80.58885
G0 F9000 X130.968 Y116.543
G1 F1800 X116.104 Y101.679 E81.63758
G0 F9000 X115.539 Y101.679
G1 F1800 X130.968 Y117.108 E82.72618
G0 F9000 X130.968 Y117.674
G1 F1800 X114.973 Y101.679 E83.85472
G0 F9000 X114.407 Y101.679
G1 F1800 X130.968 Y118.240 E85.02319
G0 F9000 X130.968 Y118.805
G1 F1800 X113.842 Y101.679 E86.23152
G0 F9000 X113.276 Y101.679
G1 F1800 X130.968 Y119.371 E87.47978
G0 F9000 X130.968 Y119.937
G1 F1800 X112.710 Y101.679 E88.76798
G0 F9000 X112.145 Y101.679
G1 F1800 X130.968 Y120.503 E90.09608
G0 F9000 X130.968 Y121.068
G1 F1800 X111.579 Y101.679 E91.46408
G0 F9000 X111.013 Y101.679
G1 F1800 X130.968 Y121.634 E92.87201
G0 F9000 X130.968 Y122.200
G1 F1800 X110.447 Y101.679 E94.31988
G0 F9000 X109.882 Y101.679
G1 F1800 X130.968 Y122.765 E95.80761
G0 F9000 X130.956 Y123.319
G1 F1800 X109.316 Y101.679 E97.33443
G0 F9000 X108.750 Y101.679
G1 F1800 X130.390 Y123.319 E98.86125
G0 F9000 X129.824 Y123.319
G1 F1800 X108.185 Y101.679 E100.38803
G0 F9000 X107.619 Y101.679
G1 F1800 X129.259 Y123.319 E101.91485
G0 F9000 X128.693 Y123.319
G1 F1800 X107.053 Y101.679 E103.44167
G0 F9000 X106.488 Y101.679
G1 F1800 X128.127 Y123.319 E104.96846
G0 F9000 X127.562 Y123.319
G1 F1800 X105.922 Y101.679 E106.49528
G0 F9000 X105.356 Y101.679
G1 F1800 X126.996 Y123.319 E108.02209
G0 F9000 X126.430 Y123.319
G1 F1800 X104.791 Y101.679 E109.54888
G0 F9000 X104.225 Y101.679
G1 F1800 X125.865 Y123.319 E111.07570
G0 F9000 X125.299 Y123.319
G1 F1800 X103.659 Y101.679 E112.60252
G0 F9000 X103.094 Y101.679
G1 F1800 X124.733 Y123.319 E114.12930
G0 F9000 X124.167 Y123.319
G1 F1800 X102.528 Y101.679 E115.65608
G0 F9000 X101.962 Y101.679
G1 F1800 X123.602 Y123.319 E117.18290
G0 F9000 X123.036 Y123.319
G1 F1800 X101.396 Y101.679 E118.70972
G0 F9000 X100.831 Y101.679
G1 F1800 X122.470 Y123.319 E120.23650
G0 F9000 X121.905 Y123.319
G1 F1800 X100.265 Y101.679 E121.76332
G0 F9000 X99.699 Y101.679
G1 F1800 X121.339 Y123.319 E123.29014
G0 F9000 X120.970 Y123.515
G1 F1800 X99.134 Y101.679 E124.83079
G0 F9000 X98.568 Y101.679
G1 F1800 X120.970 Y124.081 E126.41137
G0 F9000 X120.970 Y124.647
G1 F1800 X98.002 Y101.679 E128.03189
G0 F9000 X97.437 Y101.679
G1 F1800 X120.970 Y125.213 E129.69230
G0 F9000 X120.970 Y125.778
G1 F1800 X96.871 Y101.679 E131.39262
G0 F9000 X96.305 Y101.679
G1 F1800 X120.970 Y126.344 E133.13287
G0 F9000 X120.970 Y126.910
G1 F1800 X95.740 Y101.679 E134.91302
G0 F9000 X95.174 Y101.679
G1 F1800 X120.970 Y127.475 E136.73306
G0 F9000 X120.970 Y128.041
G1 F1800 X94.608 Y101.679 E138.59304
G0 F9000 X94.043 Y101.679
G1 F1800 X120.970 Y128.607 E140.49292
G0 F9000 X120.970 Y129.172
G1 F1800 X115.679 Y123.882 E140.86620
G0 F9000 X115.679 Y124.447
G1 F1800 X120.970 Y129.738 E141.23951
G0 F9000 X120.970 Y130.304
G1 F1800 X115.679 Y125.013 E141.61281
G0 F9000 X115.679 Y125.579
G1 F1800 X120.419 Y130.319 E141.94725
G0 F9000 X119.853 Y130.319
G1 F1800 X115.679 Y126.145 E142.24175
G0 F9000 X115.679 Y126.710
G1 F1800 X119.288 Y130.319 E142.49638
G0 F9000 X118.722 Y130.319
G1 F1800 X115.679 Y127.276 E142.71108
G0 F9000 X115.679 Y127.842
G1 F1800 X118.156 Y130.319 E142.88585
G0 F9000 X117.591 Y130.319
G1 F1800 X115.679 Y128.407 E143.02075
G0 F9000 X115.679 Y128.973
G1 F1800 X117.025 Y130.319 E143.11572
G0 F9000 X116.459 Y130.319
G1 F1800 X115.679 Y129.539 E143.17075
G0 F9000 X115.679 Y130.104
G1 F1800 X115.894 Y130.319 E143.18592
G0 F9000 X115.541 Y123.459
G0 X115.116 Y123.319
G1 F1800 X93.477 Y101.679 E144.71270
G0 F9000 X92.911 Y101.679
G1 F1800 X114.551 Y123.319 E146.23952
G0 F9000 X113.985 Y123.319
G1 F1800 X92.346 Y101.679 E147.76630
G0 F9000 X91.780 Y101.679
G1 F1800 X113.419 Y123.319 E149.29309
G0 F9000 X112.854 Y123.319
G1 F1800 X91.214 Y101.679 E150.81991
G0 F9000 X90.648 Y101.679
G1 F1800 X112.288 Y123.319 E152.34673
G0 F9000 X111.722 Y123.319
G1 F1800 X90.083 Y101.679 E153.87351
G0 F9000 X89.517 Y101.679
G1 F1800 X111.157 Y123.319 E155.40033
G0 F9000 X110.591 Y123.319
G1 F1800 X88.951 Y101.679 E156.92715
G0 F9000 X88.386 Y101.679
G1 F1800 X110.025 Y123.319 E158.45393
G0 F9000 X109.460 Y123.319
G1 F1800 X87.820 Y101.679 E159.98075
G0 F9000 X87.254 Y101.679
G1 F1800 X108.894 Y123.319 E161.50757
G0 F9000 X108.328 Y123.319
G1 F1800 X87.029 Y102.019 E163.01036
G0 F9000 X87.029 Y102.585
G1 F1800 X107.763 Y123.319 E164.47326
G0 F9000 X107.197 Y123.319
G1 F1800 X87.029 Y103.151 E165.89622
G0 F9000 X87.029 Y103.717
G1 F1800 X106.631 Y123.319 E167.27925
G0 F9000 X106.066 Y123.319
G1 F1800 X87.029 Y104.282 E168.62241
G0 F9000 X87.029 Y104.848
G1 F1800 X105.500 Y123.319 E169.92564
G0 F9000 X104.934 Y123.319
G1 F1800 X87.029 Y105.414 E171.18893
G0 F9000 X87.029 Y105.979
G1 F1800 X104.368 Y123.319 E172.41233
G0 F9000 X103.803 Y123.319
G1 F1800 X87.029 Y106.545 E173.59583
G0 F9000 X87.029 Y107.111
G1 F1800 X103.237 Y123.319 E174.73939
G0 F9000 X102.671 Y123.319
G1 F1800 X87.029 Y107.676 E175.84305
G0 F9000 X87.029 Y108.242
G1 F1800 X102.320 Y123.533 E176.92191
G0 F9000 X102.320 Y124.099
G1 F1800 X87.029 Y108.808 E178.00078
G0 F9000 X87.029 Y109.373
G1 F1800 X102.320 Y124.665 E179.07967
G0 F9000 X102.320 Y125.230
G1 F1800 X87.029 Y109.939 E180.15854
G0 F9000 X87.029 Y110.505
G1 F1800 X102.320 Y125.796 E181.23740
G0 F9000 X102.320 Y126.362
G1 F1800 X87.029 Y111.070 E182.31630
G0 F9000 X87.029 Y111.636
G1 F1800 X102.320 Y126.927 E183.39516
G0 F9000 X102.320 Y127.493
G1 F1800 X87.029 Y112.202 E184.47402
G0 F9000 X87.029 Y112.767
G1 F1800 X102.320 Y128.059 E185.55292
G0 F9000 X102.320 Y128.624
G1 F1800 X97.029 Y123.333 E185.92623
G0 F9000 X97.015 Y123.319
G1 F1800 X87.029 Y113.333 E186.63079
G0 F9000 X87.029 Y113.899
G1 F1800 X96.449 Y123.319 E187.29543
G0 F9000 X95.883 Y123.319
G1 F1800 X87.029 Y114.465 E187.92012
G0 F9000 X87.029 Y115.030
G1 F1800 X95.317 Y123.319 E188.50492
G0 F9000 X94.752 Y123.319
G1 F1800 X87.029 Y115.596 E189.04982
G0 F9000 X87.029 Y116.162
G1 F1800 X94.186 Y123.319 E189.55479
G0 F9000 X93.620 Y123.319
G1 F1800 X87.029 Y116.727 E190.01985
G0 F9000 X87.029 Y117.293
G1 F1800 X93.055 Y123.319 E190.44502
G0 F9000 X92.489 Y123.319
G1 F1800 X87.029 Y117.859 E190.83025
G0 F9000 X87.029 Y118.424
G1 F1800 X91.923 Y123.319 E191.17559
G0 F9000 X91.358 Y123.319
G1 F1800 X87.029 Y118.990 E191.48102
G0 F9000 X87.029 Y119.556
G1 F1800 X90.792 Y123.319 E191.74652
G0 F9000 X90.226 Y123.319
G1 F1800 X87.029 Y120.121 E191.97212
G0 F9000 X87.029 Y120.687
G1 F1800 X89.661 Y123.319 E192.15782
G0 F9000 X89.095 Y123.319
G1 F1800 X87.029 Y121.253 E192.30359
G0 F9000 X87.029 Y121.818
G1 F1800 X88.529 Y123.319 E192.40946
G0 F9000 X87.964 Y123.319
G1 F1800 X87.029 Y122.384 E192.47543
G0 F9000 X87.029 Y122.950
G1 F1800 X87.398 Y123.319 E192.50146
G0 F9000 X96.890 Y123.459
G0 X97.029 Y123.899
G1 F1800 X102.320 Y129.190 E192.87477
G0 F9000 X102.320 Y129.756
G1 F1800 X97.029 Y124.464 E193.24811
G0 F9000 X97.029 Y125.030
G1 F1800 X102.317 Y130.319 E193.62125
G0 F9000 X101.751 Y130.319
G1 F1800 X97.029 Y125.596 E193.95444
G0 F9000 X97.029 Y126.161
G1 F1800 X101.186 Y130.319 E194.24778
G0 F9000 X100.620 Y130.319
G1 F1800 X97.029 Y126.727 E194.50118
G0 F9000 X97.029 Y127.293
G1 F1800 X100.054 Y130.319 E194.71464
G0 F9000 X99.489 Y130.319
G1 F1800 X97.029 Y127.859 E194.88821
G0 F9000 X97.029 Y128.424
G1 F1800 X98.923 Y130.319 E195.02188
G0 F9000 X98.357 Y130.319
G1 F1800 X97.029 Y128.990 E195.11561
G0 F9000 X97.029 Y129.556
G1 F1800 X97.792 Y130.319 E195.16944
G0 F9000 X97.226 Y130.319
G1 F1800 X97.029 Y130.121 E195.18338
G1 F2400 E191.18338
G0 F9000 X86.949 Y137.600
;TYPE:WALL-INNER
G1 F2400 E195.18338
G1 F1800 X131.049 Y137.600 E197.38354
G1 X131.049 Y159.400 E198.47114
G1 X121.050 Y159.400 E198.97000
G1 X121.050 Y166.400 E199.31923
G1 X115.600 Y166.400 E199.59113
G1 X115.600 Y159.400 E199.94036
G1 X102.400 Y159.400 E200.59891
G1 X102.400 Y166.400 E200.94814
G1 X96.949 Y166.400 E201.22009
G1 X96.949 Y159.400 E201.56932
G1 X86.949 Y159.400 E202.06823
G1 X86.949 Y137.600 E203.15583
G0 F9000 X86.549 Y137.200
;TYPE:WALL-OUTER
G1 F1800 X131.449 Y137.200 E205.39590
G1 X131.449 Y159.800 E206.52342
G1 X121.450 Y159.800 E207.02227
G1 X121.450 Y166.800 E207.37151
G1 X115.200 Y166.800 E207.68332
G1 X115.200 Y159.800 E208.03255
G1 X102.800 Y159.800 E208.65119
G1 X102.800 Y166.800 E209.00042
G1 X96.549 Y166.800 E209.31228
G1 X96.549 Y159.800 E209.66152
G1 X86.549 Y159.800 E210.16042
G1 X86.549 Y137.200 E211.28794
G0 F9000 X87.050 Y137.679
;TYPE:SKIN
G1 F1800 X108.690 Y159.319 E212.81476
G0 F9000 X108.125 Y159.319
G1 F1800 X87.029 Y138.223 E214.30319
G0 F9000 X87.029 Y138.789
G1 F1800 X107.559 Y159.319 E215.75169
G0 F9000 X106.993 Y159.319
G1 F1800 X87.029 Y139.355 E217.16026
G0 F9000 X87.029 Y139.920
G1 F1800 X106.428 Y159.319 E218.52897
G0 F9000 X105.862 Y159.319
G1 F1800 X87.029 Y140.486 E219.85774
G0 F9000 X87.029 Y141.052
G1 F1800 X105.296 Y159.319 E221.14657
G0 F9000 X104.730 Y159.319
G1 F1800 X87.029 Y141.617 E222.39551
G0 F9000 X87.029 Y142.183
G1 F1800 X104.165 Y159.319 E223.60455
G0 F9000 X103.599 Y159.319
G1 F1800 X87.029 Y142.749 E224.77365
G0 F9000 X87.029 Y143.314
G1 F1800 X103.033 Y159.319 E225.90285
G0 F9000 X102.468 Y159.319
G1 F1800 X87.029 Y143.880 E226.99216
G0 F9000 X87.029 Y144.446
G1 F1800 X102.320 Y159.737 E228.07102
G0 F9000 X102.459 Y159.459
G0 X109.256 Y159.319
G1 F1800 X87.616 Y137.679 E229.59784
G0 F9000 X88.181 Y137.679
G1 F1800 X109.822 Y159.319 E231.12469
G0 F9000 X110.387 Y159.319
G1 F1800 X88.747 Y137.679 E232.65151
G0 F9000 X89.313 Y137.679
G1 F1800 X110.953 Y159.319 E234.17833
G0 F9000 X111.519 Y159.319
G1 F1800 X89.878 Y137.679 E235.70519
G0 F9000 X90.444 Y137.679
G1 F1800 X112.084 Y159.319 E237.23200
G0 F9000 X112.650 Y159.319
G1 F1800 X91.010 Y137.679 E238.75882
G0 F9000 X91.575 Y137.679
G1 F1800 X113.216 Y159.319 E240.28568
G0 F9000 X113.781 Y159.319
G1 F1800 X92.141 Y137.679 E241.81250
G0 F9000 X92.707 Y137.679
G1 F1800 X114.347 Y159.319 E243.33931
G0 F9000 X114.913 Y159.319
G1 F1800 X93.273 Y137.679 E244.86613
G0 F9000 X93.838 Y137.679
G1 F1800 X115.479 Y159.319 E246.39299
G0 F9000 X115.679 Y159.520
G1 F1800 X120.969 Y164.810 E246.76623
G0 F9000 X120.969 Y165.376
G1 F1800 X115.679 Y160.086 E247.13946
G0 F9000 X115.679 Y160.651
G1 F1800 X120.969 Y165.941 E247.51270
G0 F9000 X120.781 Y166.319
G1 F1800 X115.679 Y161.217 E247.87268
G0 F9000 X115.679 Y161.783
G1 F1800 X120.215 Y166.319 E248.19272
G0 F9000 X120.969 Y164.244
G1 F1800 X94.404 Y137.679 E250.06702
G0 F9000 X94.970 Y137.679
G1 F1800 X120.969 Y163.678 E251.90139
G0 F9000 X120.969 Y163.113
G1 F1800 X95.535 Y137.679 E253.69590
G0 F9000 X96.101 Y137.679
G1 F1800 X120.969 Y162.547 E255.45047
G0 F9000 X120.969 Y161.981
G1 F1800 X96.667 Y137.679 E257.16510
G0 F9000 X97.232 Y137.679
G1 F1800 X120.969 Y161.416 E258.83988
G0 F9000 X120.969 Y160.850
G1 F1800 X97.798 Y137.679 E260.47472
G0 F9000 X98.364 Y137.679
G1 F1800 X120.969 Y160.284 E262.06962
G0 F9000 X120.969 Y159.719
