;Generated with Cura_SteamEngine 15.01
; Default start code
G28 ; Home extruder
G1 Z15 F2000
M107 ; Turn off fan
G90 ; Absolute positioning
M82 ; Extruder in absolute mode
M104 T0 S210
M190 S70
; Activate all used extruder
G92 E0 ; Reset extruder position
; Wait for all used extruders to reach temperature
M109 T0 S205 R210
;Layer count: 35
;LAYER:0
M107
G0 F9000 X109.149 Y151.800 Z0.300
;TYPE:SKIRT
G1 F1800 X160.849 Y151.800 E2.57932
G1 X160.849 Y181.200 E4.04610
G1 X150.849 Y181.200 E4.54500
G1 X150.849 Y188.200 E4.89423
G1 X144.200 Y188.200 E5.22595
G1 X144.200 Y188.800 E5.25588
G1 X125.800 Y188.800 E6.17386
G1 X125.800 Y188.200 E6.20380
G1 X119.149 Y188.200 E6.53562
G1 X119.149 Y181.200 E6.88485
G1 X109.149 Y181.200 E7.38375
G1 X109.149 Y151.800 E8.85052
G1 F2400 E4.85052
G0 F9000 X112.949 Y155.600
;TYPE:WALL-INNER
G1 F2400 E8.85052
G1 F1800 X157.049 Y155.600 E11.05068
G1 X157.049 Y177.400 E12.13829
G1 X147.049 Y177.400 E12.63719
G1 X147.049 Y184.400 E12.98642
G1 X141.600 Y184.400 E13.25827
G1 X141.600 Y177.400 E13.60750
G1 X128.400 Y177.400 E14.26605
G1 X128.400 Y184.400 E14.61528
G1 X122.949 Y184.400 E14.88724
G1 X122.949 Y177.400 E15.23647
G1 X112.949 Y177.400 E15.73537
G1 X112.949 Y155.600 E16.82298
G0 F9000 X112.549 Y155.200
;TYPE:WALL-OUTER
G1 F1800 X157.449 Y155.200 E19.06305
G1 X157.449 Y177.800 E20.19056
G1 X147.449 Y177.800 E20.68947
G1 X147.449 Y184.800 E21.03870
G1 X141.200 Y184.800 E21.35046
G1 X141.200 Y177.800 E21.69969
G1 X128.800 Y177.800 E22.31833
G1 X128.800 Y184.800 E22.66756
G1 X122.549 Y184.800 E22.97943
G1 X122.549 Y177.800 E23.32866
G1 X112.549 Y177.800 E23.82756
G1 X112.549 Y155.200 E24.95508
G0 F9000 X113.028 Y155.738
;TYPE:SKIN
G1 F1800 X134.610 Y177.319 E26.47777
G0 F9000 X134.044 Y177.319
G1 F1800 X113.028 Y156.303 E27.96056
G0 F9000 X113.028 Y156.869
G1 F1800 X133.479 Y177.319 E29.40346
G0 F9000 X132.913 Y177.319
G1 F1800 X113.028 Y157.435 E30.80642
G0 F9000 X113.028 Y158.000
G1 F1800 X132.347 Y177.319 E32.16947
G0 F9000 X131.782 Y177.319
G1 F1800 X113.028 Y158.566 E33.49264
G0 F9000 X113.028 Y159.132
G1 F1800 X131.216 Y177.319 E34.77586
G0 F9000 X130.650 Y177.319
G1 F1800 X113.028 Y159.697 E36.01919
G0 F9000 X113.535 Y155.679
G1 F1800 X135.176 Y177.319 E37.54604
G0 F9000 X135.741 Y177.319
G1 F1800 X114.101 Y155.679 E39.07286
G0 F9000 X114.667 Y155.679
G1 F1800 X136.307 Y177.319 E40.59968
G0 F9000 X136.873 Y177.319
G1 F1800 X115.232 Y155.679 E42.12654
G0 F9000 X115.798 Y155.679
G1 F1800 X137.438 Y177.319 E43.65335
G0 F9000 X138.004 Y177.319
G1 F1800 X116.364 Y155.679 E45.18017
G0 F9000 X116.930 Y155.679
G1 F1800 X138.570 Y177.319 E46.70699
G0 F9000 X139.135 Y177.319
G1 F1800 X117.495 Y155.679 E48.23381
G0 F9000 X118.061 Y155.679
G1 F1800 X139.701 Y177.319 E49.76063
G0 F9000 X130.085 Y177.319
G1 F1800 X113.028 Y160.263 E50.96406
G0 F9000 X113.028 Y160.829
G1 F1800 X129.519 Y177.319 E52.12755
G0 F9000 X128.953 Y177.319
G1 F1800 X113.028 Y161.395 E53.25111
G0 F9000 X113.028 Y161.960
G1 F1800 X128.387 Y177.319 E54.33477
G0 F9000 X128.320 Y177.817
G1 F1800 X113.028 Y162.526 E55.41367
G0 F9000 X113.028 Y163.092
G1 F1800 X128.320 Y178.383 E56.49257
G0 F9000 X128.320 Y178.948
G1 F1800 X113.028 Y163.657 E57.57147
G0 F9000 X113.028 Y164.223
G1 F1800 X128.320 Y179.514 E58.65036
G0 F9000 X128.320 Y182.908
G1 F1800 X123.028 Y177.617 E59.02371
G0 F9000 X122.730 Y177.319
G1 F1800 X113.028 Y167.617 E59.70824
G0 F9000 X113.028 Y168.183
G1 F1800 X122.164 Y177.319 E60.35283
G0 F9000 X121.599 Y177.319
G1 F1800 X113.028 Y168.748 E60.95756
G0 F9000 X113.028 Y169.314
G1 F1800 X121.033 Y177.319 E61.52236
G0 F9000 X120.467 Y177.319
G1 F1800 X113.028 Y169.880 E62.04722
G0 F9000 X113.028 Y170.445
G1 F1800 X119.901 Y177.319 E62.53218
G0 F9000 X119.336 Y177.319
G1 F1800 X113.028 Y171.011 E62.97724
G0 F9000 X113.028 Y171.577
G1 F1800 X118.770 Y177.319 E63.38237
G0 F9000 X118.204 Y177.319
G1 F1800 X113.028 Y172.143 E63.74757
G0 F9000 X113.028 Y172.708
G1 F1800 X117.639 Y177.319 E64.07290
G0 F9000 X117.073 Y177.319
G1 F1800 X113.028 Y173.274 E64.35830
G0 F9000 X113.028 Y173.840
G1 F1800 X116.507 Y177.319 E64.60376
G0 F9000 X115.942 Y177.319
G1 F1800 X113.028 Y174.405 E64.80936
G0 F9000 X113.028 Y174.971
G1 F1800 X115.376 Y177.319 E64.97502
G0 F9000 X114.810 Y177.319
G1 F1800 X113.028 Y175.537 E65.10075
G0 F9000 X113.028 Y176.102
G1 F1800 X114.245 Y177.319 E65.18662
G0 F9000 X113.679 Y177.319
G1 F1800 X113.028 Y176.668 E65.23255
G0 F9000 X113.028 Y177.234
G1 F1800 X113.113 Y177.319 E65.23854
G0 F9000 X113.028 Y167.051
G1 F1800 X128.320 Y182.343 E66.31748
G0 F9000 X128.320 Y181.777
G1 F1800 X113.028 Y166.486 E67.39638
G0 F9000 X113.028 Y165.920
G1 F1800 X128.320 Y181.211 E68.47527
G0 F9000 X128.320 Y180.645
G1 F1800 X113.028 Y165.354 E69.55417
G0 F9000 X113.028 Y164.789
G1 F1800 X128.320 Y180.080 E70.63307
G0 F9000 X128.320 Y183.474
G1 F1800 X123.028 Y178.183 E71.00641
G0 F9000 X123.028 Y178.748
G1 F1800 X128.320 Y184.040 E71.37979
G0 F9000 X128.032 Y184.318
G1 F1800 X123.028 Y179.314 E71.73285
G0 F9000 X123.028 Y179.880
G1 F1800 X127.467 Y184.318 E72.04601
G0 F9000 X126.901 Y184.318
G1 F1800 X123.028 Y180.445 E72.31927
G0 F9000 X123.028 Y181.011
G1 F1800 X126.335 Y184.318 E72.55260
G0 F9000 X125.770 Y184.318
G1 F1800 X123.028 Y181.577 E72.74603
G0 F9000 X123.028 Y182.142
G1 F1800 X125.204 Y184.318 E72.89956
G0 F9000 X124.638 Y184.318
G1 F1800 X123.028 Y182.708 E73.01315
G0 F9000 X123.028 Y183.274
G1 F1800 X124.073 Y184.318 E73.08685
G0 F9000 X123.507 Y184.318
G1 F1800 X123.028 Y183.839 E73.12064
G0 F9000 X128.459 Y177.459
G0 X140.267 Y177.319
G1 F1800 X118.627 Y155.679 E74.64746
G0 F9000 X119.192 Y155.679
G1 F1800 X140.833 Y177.319 E76.17431
G0 F9000 X141.398 Y177.319
G1 F1800 X119.758 Y155.679 E77.70113
G0 F9000 X120.324 Y155.679
G1 F1800 X146.968 Y182.323 E79.58101
G0 F9000 X146.968 Y181.758
G1 F1800 X120.889 Y155.679 E81.42103
G0 F9000 X121.455 Y155.679
G1 F1800 X146.968 Y181.192 E83.22111
G0 F9000 X146.968 Y180.626
G1 F1800 X122.021 Y155.679 E84.98125
G0 F9000 X122.586 Y155.679
G1 F1800 X146.968 Y180.061 E86.70153
G0 F9000 X146.968 Y182.889
G1 F1800 X141.679 Y177.600 E87.07470
G0 F9000 X141.679 Y178.166
G1 F1800 X146.968 Y183.455 E87.44787
G0 F9000 X146.968 Y184.021
G1 F1800 X141.679 Y178.731 E87.82107
G0 F9000 X141.679 Y179.297
G1 F1800 X146.701 Y184.319 E88.17540
G0 F9000 X146.135 Y184.319
G1 F1800 X141.679 Y179.863 E88.48979
G0 F9000 X146.968 Y179.495
G1 F1800 X123.152 Y155.679 E90.17014
G0 F9000 X123.718 Y155.679
G1 F1800 X146.968 Y178.929 E91.81056
G0 F9000 X146.968 Y178.364
G1 F1800 X124.283 Y155.679 E93.41110
G0 F9000 X124.849 Y155.679
G1 F1800 X146.968 Y177.798 E94.97172
G0 F9000 X147.054 Y177.319
G1 F1800 X125.415 Y155.679 E96.49850
G0 F9000 X125.980 Y155.679
G1 F1800 X147.620 Y177.319 E98.02532
G0 F9000 X148.186 Y177.319
G1 F1800 X126.546 Y155.679 E99.55214
G0 F9000 X127.112 Y155.679
G1 F1800 X148.751 Y177.319 E101.07892
G0 F9000 X149.317 Y177.319
G1 F1800 X127.678 Y155.679 E102.60571
G0 F9000 X128.243 Y155.679
G1 F1800 X149.883 Y177.319 E104.13253
G0 F9000 X150.448 Y177.319
G1 F1800 X128.809 Y155.679 E105.65931
G0 F9000 X129.375 Y155.679
G1 F1800 X151.014 Y177.319 E107.18609
G0 F9000 X151.580 Y177.319
G1 F1800 X129.940 Y155.679 E108.71291
G0 F9000 X130.506 Y155.679
G1 F1800 X152.146 Y177.319 E110.23973
G0 F9000 X152.711 Y177.319
G1 F1800 X131.072 Y155.679 E111.76652
G0 F9000 X131.637 Y155.679
G1 F1800 X153.277 Y177.319 E113.29333
G0 F9000 X153.843 Y177.319
G1 F1800 X132.203 Y155.679 E114.82015
G0 F9000 X132.769 Y155.679
G1 F1800 X154.408 Y177.319 E116.34694
G0 F9000 X154.974 Y177.319
G1 F1800 X133.334 Y155.679 E117.87376
G0 F9000 X133.900 Y155.679
G1 F1800 X155.540 Y177.319 E119.40057
G0 F9000 X156.105 Y177.319
G1 F1800 X134.466 Y155.679 E120.92736
G0 F9000 X135.032 Y155.680
G1 F1800 X156.671 Y177.319 E122.45411
G0 F9000 X156.969 Y177.051
G1 F1800 X135.598 Y155.680 E123.96195
G0 F9000 X136.164 Y155.680
G1 F1800 X156.969 Y176.485 E125.42985
G0 F9000 X156.969 Y175.919
G1 F1800 X136.729 Y155.680 E126.85786
G0 F9000 X137.295 Y155.680
G1 F1800 X156.969 Y175.353 E128.24593
G0 F9000 X156.969 Y174.788
G1 F1800 X137.861 Y155.680 E129.59410
G0 F9000 X138.426 Y155.680
G1 F1800 X156.969 Y174.222 E130.90237
G0 F9000 X156.969 Y173.656
G1 F1800 X138.992 Y155.680 E132.17071
G0 F9000 X139.558 Y155.680
G1 F1800 X156.969 Y173.091 E133.39915
G0 F9000 X156.969 Y172.525
G1 F1800 X140.123 Y155.680 E134.58770
G0 F9000 X140.689 Y155.680
G1 F1800 X156.969 Y171.959 E135.73630
G0 F9000 X156.969 Y171.394
G1 F1800 X141.255 Y155.680 E136.84501
G0 F9000 X141.820 Y155.680
G1 F1800 X156.969 Y170.828 E137.91382
G0 F9000 X156.969 Y170.262
G1 F1800 X142.386 Y155.680 E138.94269
G0 F9000 X142.952 Y155.680
G1 F1800 X156.969 Y169.697 E139.93167
G0 F9000 X156.969 Y169.131
G1 F1800 X143.517 Y155.680 E140.88074
G0 F9000 X144.083 Y155.680
G1 F1800 X156.969 Y168.565 E141.78988
G0 F9000 X156.969 Y168.000
G1 F1800 X144.649 Y155.680 E142.65913
G0 F9000 X145.214 Y155.680
G1 F1800 X156.969 Y167.434 E143.48847
G0 F9000 X156.969 Y166.868
G1 F1800 X145.780 Y155.680 E144.27788
G0 F9000 X146.346 Y155.680
G1 F1800 X156.969 Y166.303 E145.02739
G0 F9000 X156.969 Y165.737
G1 F1800 X146.912 Y155.680 E145.73697
G0 F9000 X147.477 Y155.680
G1 F1800 X156.969 Y165.171 E146.40664
G0 F9000 X156.969 Y164.605
G1 F1800 X148.043 Y155.680 E147.03638
G0 F9000 X148.609 Y155.680
G1 F1800 X156.969 Y164.040 E147.62623
G0 F9000 X156.969 Y163.474
G1 F1800 X149.174 Y155.680 E148.17617
G0 F9000 X149.740 Y155.680
G1 F1800 X156.969 Y162.908 E148.68618
G0 F9000 X156.969 Y162.343
G1 F1800 X150.306 Y155.680 E149.15629
G0 F9000 X150.871 Y155.680
G1 F1800 X156.969 Y161.777 E149.58650
G0 F9000 X156.969 Y161.211
G1 F1800 X151.437 Y155.680 E149.97678
G0 F9000 X152.003 Y155.680
G1 F1800 X156.969 Y160.646 E150.32716
G0 F9000 X156.969 Y160.080
G1 F1800 X152.568 Y155.680 E150.63764
G0 F9000 X153.134 Y155.680
G1 F1800 X156.969 Y159.514 E150.90818
G0 F9000 X156.969 Y158.949
G1 F1800 X153.700 Y155.680 E151.13883
G0 F9000 X154.265 Y155.680
G1 F1800 X156.969 Y158.383 E151.32957
G0 F9000 X156.969 Y157.817
G1 F1800 X154.831 Y155.680 E151.48039
G0 F9000 X155.397 Y155.680
G1 F1800 X156.969 Y157.252 E151.59130
G0 F9000 X156.969 Y156.686
G1 F1800 X155.963 Y155.680 E151.66228
G0 F9000 X156.528 Y155.680
G1 F1800 X156.969 Y156.120 E151.69336
G0 F9000 X141.679 Y180.428
G1 F1800 X145.569 Y184.319 E151.96785
G0 F9000 X145.004 Y184.319
G1 F1800 X141.679 Y180.994 E152.20245
G0 F9000 X141.679 Y181.560
G1 F1800 X144.438 Y184.319 E152.39711
G0 F9000 X143.872 Y184.319
G1 F1800 X141.679 Y182.125 E152.55188
G0 F9000 X141.679 Y182.691
G1 F1800 X143.307 Y184.319 E152.66674
G0 F9000 X142.741 Y184.319
G1 F1800 X141.679 Y183.257 E152.74167
G0 F9000 X141.679 Y183.823
G1 F1800 X142.175 Y184.319 E152.77667
G1 F2400 E148.77667
G0 F9000 X140.300 Y185.600
;TYPE:SUPPORT
G1 F2400 E152.77667
G1 F1800 X129.700 Y185.600 E153.30550
G1 X129.700 Y178.700 E153.64974
G1 X140.300 Y178.700 E154.17858
G1 X140.300 Y185.600 E154.52282
G0 F9000 X140.200 Y185.590
G0 X140.200 Y183.954
G0 X140.419 Y183.954
G1 F1800 X129.579 Y183.954 E155.06363
G0 F9000 X129.800 Y183.954
G0 X130.634 Y185.500
G0 X130.634 Y185.720
G1 F1800 X130.634 Y178.580 E155.41985
G0 F9000 X129.579 Y178.622
G1 F1800 X140.419 Y178.622 E155.96066
G0 F9000 X140.200 Y178.710
G0 X135.966 Y178.800
G0 X135.966 Y178.580
G1 F1800 X135.966 Y185.720 E156.31687
;LAYER:1
M106 S63
G1 F2400 E152.31687
G0 F9000 X141.600 Y184.400 Z0.500
;TYPE:WALL-INNER
G1 F2400 E156.31687
G1 F2220 X141.600 Y177.400 E156.54970
G1 X128.400 Y177.400 E156.98873
G1 X128.400 Y184.400 E157.22155
G1 X122.949 Y184.400 E157.40285
G1 X122.949 Y177.400 E157.63567
G1 X112.949 Y177.400 E157.96827
G1 X112.949 Y155.600 E158.69334
G1 X157.049 Y155.600 E160.16012
G1 X157.049 Y177.400 E160.88519
G1 X147.049 Y177.400 E161.21779
G1 X147.049 Y184.400 E161.45061
G1 X141.600 Y184.400 E161.63184
G0 F9000 X141.200 Y184.800
;TYPE:WALL-OUTER
G1 F1980 X141.200 Y177.800 E161.86467
G1 X128.800 Y177.800 E162.27709
G1 X128.800 Y184.800 E162.50991
G1 X122.549 Y184.800 E162.71782
G1 X122.549 Y177.800 E162.95064
G1 X112.549 Y177.800 E163.28324
G1 X112.549 Y155.200 E164.03492
G1 X157.449 Y155.200 E165.52830
G1 X157.449 Y177.800 E166.27998
G1 X147.449 Y177.800 E166.61258
G1 X147.449 Y184.800 E166.84540
G1 X141.200 Y184.800 E167.05325
G0 F9000 X141.798 Y184.319
;TYPE:SKIN
G1 F1980 X146.968 Y179.149 E167.29643
G0 F9000 X146.968 Y179.714
G1 F1980 X142.363 Y184.319 E167.51303
G0 F9000 X142.929 Y184.319
G1 F1980 X146.968 Y180.280 E167.70301
G0 F9000 X146.968 Y180.846
G1 F1980 X143.495 Y184.319 E167.86637
G0 F9000 X144.060 Y184.319
G1 F1980 X146.968 Y181.411 E168.00316
G0 F9000 X146.968 Y181.977
G1 F1980 X144.626 Y184.319 E168.11332
G0 F9000 X145.192 Y184.319
G1 F1980 X146.968 Y182.543 E168.19686
G0 F9000 X146.968 Y183.108
G1 F1980 X145.758 Y184.319 E168.25379
G0 F9000 X146.323 Y184.319
G1 F1980 X146.968 Y183.674 E168.28413
G0 F9000 X146.968 Y184.240
G1 F1980 X146.889 Y184.319 E168.28785
G0 F9000 X141.680 Y183.871
G1 F1980 X146.968 Y178.583 E168.53658
G0 F9000 X146.968 Y178.017
G1 F1980 X141.680 Y183.306 E168.78533
G0 F9000 X141.680 Y182.740
G1 F1980 X146.968 Y177.451 E169.03409
G0 F9000 X147.100 Y177.319
G1 F1980 X156.968 Y167.452 E169.49823
G0 F9000 X156.968 Y168.017
G1 F1980 X147.666 Y177.319 E169.93576
G0 F9000 X148.232 Y177.319
G1 F1980 X156.968 Y168.583 E170.34668
G0 F9000 X156.968 Y169.149
G1 F1980 X148.797 Y177.319 E170.73099
G0 F9000 X149.363 Y177.319
G1 F1980 X156.968 Y169.714 E171.08871
G0 F9000 X156.968 Y170.280
G1 F1980 X149.929 Y177.319 E171.41980
G0 F9000 X150.494 Y177.319
G1 F1980 X156.968 Y170.846 E171.72430
G0 F9000 X156.968 Y171.411
G1 F1980 X151.060 Y177.319 E172.00219
G0 F9000 X151.626 Y177.319
G1 F1980 X156.968 Y171.977 E172.25346
G0 F9000 X156.968 Y172.543
G1 F1980 X152.192 Y177.319 E172.47811
G0 F9000 X152.757 Y177.319
G1 F1980 X156.968 Y173.108 E172.67618
G0 F9000 X156.968 Y173.674
G1 F1980 X153.323 Y177.319 E172.84763
G0 F9000 X153.889 Y177.319
G1 F1980 X156.968 Y174.240 E172.99246
G0 F9000 X156.968 Y174.805
G1 F1980 X154.454 Y177.319 E173.11071
G0 F9000 X155.020 Y177.319
G1 F1980 X156.968 Y175.371 E173.20234
G0 F9000 X156.968 Y175.937
G1 F1980 X155.586 Y177.319 E173.26734
G0 F9000 X156.151 Y177.319
G1 F1980 X156.968 Y176.503 E173.30575
G0 F9000 X156.968 Y177.068
G1 F1980 X156.717 Y177.319 E173.31755
G0 F9000 X156.968 Y166.886
G1 F1980 X141.680 Y182.174 E174.03666
G0 F9000 X141.680 Y181.609
G1 F1980 X156.968 Y166.320 E174.75578
G0 F9000 X156.968 Y165.755
G1 F1980 X141.680 Y181.043 E175.47488
G0 F9000 X141.680 Y180.477
G1 F1980 X156.968 Y165.189 E176.19398
G0 F9000 X156.968 Y164.623
G1 F1980 X141.680 Y179.912 E176.91310
G0 F9000 X141.680 Y179.346
G1 F1980 X156.968 Y164.057 E177.63223
G0 F9000 X156.968 Y163.492
G1 F1980 X141.680 Y178.780 E178.35133
G0 F9000 X141.680 Y178.214
G1 F1980 X156.968 Y162.926 E179.07043
G0 F9000 X156.968 Y162.360
G1 F1980 X141.680 Y177.649 E179.78955
G0 F9000 X141.443 Y177.319
G1 F1980 X156.968 Y161.795 E180.51978
G0 F9000 X156.968 Y161.229
G1 F1980 X140.878 Y177.319 E181.27660
G0 F9000 X140.312 Y177.319
G1 F1980 X156.968 Y160.663 E182.06005
G0 F9000 X156.968 Y160.098
G1 F1980 X139.746 Y177.319 E182.87010
G0 F9000 X139.181 Y177.319
G1 F1980 X156.968 Y159.532 E183.70674
G0 F9000 X156.968 Y158.966
G1 F1980 X138.615 Y177.319 E184.57001
G0 F9000 X138.049 Y177.319
G1 F1980 X156.968 Y158.401 E185.45988
G0 F9000 X156.968 Y157.835
G1 F1980 X137.484 Y177.319 E186.37635
G0 F9000 X136.918 Y177.319
G1 F1980 X156.968 Y157.269 E187.31944
G0 F9000 X156.968 Y156.704
G1 F1980 X136.352 Y177.319 E188.28913
G0 F9000 X135.787 Y177.319
G1 F1980 X156.968 Y156.138 E189.28542
G0 F9000 X156.861 Y155.679
G1 F1980 X135.221 Y177.319 E190.30330
G0 F9000 X134.655 Y177.319
G1 F1980 X156.296 Y155.679 E191.32120
G0 F9000 X155.730 Y155.679
G1 F1980 X134.090 Y177.319 E192.33908
G0 F9000 X133.524 Y177.319
G1 F1980 X155.164 Y155.679 E193.35696
G0 F9000 X154.598 Y155.679
G1 F1980 X132.958 Y177.319 E194.37484
G0 F9000 X132.393 Y177.319
G1 F1980 X154.033 Y155.679 E195.39272
G0 F9000 X153.467 Y155.679
