;Generated with Cura_SteamEngine 15.01
; Default start code
G28 ; Home extruder
G1 Z15 F100
M107 ; Turn off fan
G90 ; Absolute positioning
M82 ; Extruder in absolute mode
M190 S50
; Activate all used extruder
M104 T0 S210
G92 E0 ; Reset extruder position
; Wait for all used extruders to reach temperature
M109 T0 S210
;Layer count: 35
;LAYER:0
M107
G0 F9000 X71.200 Y93.200 Z0.300
;TYPE:SKIRT
G1 F1800 X71.200 Y99.800 E0.32928
G1 X76.800 Y99.800 E0.60866
G1 X76.800 Y93.200 E0.93794
G1 X71.200 Y93.200 E1.21732
G0 F9000 X58.149 Y93.200
G1 F1800 X48.149 Y93.200 E1.71622
G1 X48.149 Y63.800 E3.18299
G1 X99.850 Y63.800 E5.76237
G1 X99.850 Y93.200 E7.22914
G1 X89.850 Y93.200 E7.72804
G1 X89.850 Y99.800 E8.05732
G1 X99.850 Y99.800 E8.55622
G1 X99.850 Y129.200 E10.02299
G1 X89.850 Y129.200 E10.52189
G1 X89.850 Y136.200 E10.87113
G1 X76.800 Y136.200 E11.52219
G1 X76.800 Y129.200 E11.87142
G1 X71.200 Y129.200 E12.15081
G1 X71.200 Y136.200 E12.50004
G1 X58.149 Y136.200 E13.15116
G1 X58.149 Y129.200 E13.50039
G1 X48.149 Y129.200 E13.99929
G1 X48.149 Y99.800 E15.46606
G1 X58.149 Y99.800 E15.96496
G1 X58.149 Y93.200 E16.29424
G0 F9000 X100.149 Y93.200
G1 F1800 X100.149 Y63.800 E17.76101
G1 X151.849 Y63.800 E20.34034
G1 X151.849 Y93.200 E21.80711
G1 X141.849 Y93.200 E22.30601
G1 X141.849 Y99.800 E22.63528
G1 X151.849 Y99.800 E23.13419
G1 X151.849 Y129.200 E24.60096
G1 X141.849 Y129.200 E25.09986
G1 X141.849 Y136.200 E25.44909
G1 X128.800 Y136.200 E26.10011
G1 X128.800 Y129.200 E26.44934
G1 X123.200 Y129.200 E26.72873
G1 X123.200 Y136.200 E27.07796
G1 X110.149 Y136.200 E27.72907
G1 X110.149 Y129.200 E28.07831
G1 X100.149 Y129.200 E28.57721
G1 X100.149 Y99.800 E30.04398
G1 X110.149 Y99.800 E30.54288
G1 X110.149 Y93.200 E30.87216
G1 X100.149 Y93.200 E31.37106
G0 F9000 X123.200 Y93.200
G1 F1800 X123.200 Y99.800 E31.70033
G1 X128.800 Y99.800 E31.97972
G1 X128.800 Y93.200 E32.30899
G1 X123.200 Y93.200 E32.58838
G1 F2400 E28.58838
G0 F9000 X96.050 Y89.400
;TYPE:WALL-INNER
G1 F2400 E32.58838
G1 F1800 X86.050 Y89.400 E33.08728
G1 X86.050 Y96.400 E33.43651
G1 X80.600 Y96.400 E33.70842
G1 X80.600 Y89.400 E34.05765
G1 X67.400 Y89.400 E34.71620
G1 X67.400 Y96.400 E35.06543
G1 X61.949 Y96.400 E35.33738
G1 X61.949 Y89.400 E35.68661
G1 X51.949 Y89.400 E36.18551
G1 X51.949 Y67.600 E37.27312
G1 X96.050 Y67.600 E39.47333
G1 X96.050 Y89.400 E40.56093
G0 F9000 X96.450 Y89.800
;TYPE:WALL-OUTER
G1 F1800 X86.450 Y89.800 E41.05984
G1 X86.450 Y96.800 E41.40907
G1 X80.200 Y96.800 E41.72088
G1 X80.200 Y89.800 E42.07011
G1 X67.800 Y89.800 E42.68875
G1 X67.800 Y96.800 E43.03798
G1 X61.549 Y96.800 E43.34985
G1 X61.549 Y89.800 E43.69908
G1 X51.549 Y89.800 E44.19798
G1 X51.549 Y67.200 E45.32550
G1 X96.450 Y67.200 E47.56562
G1 X96.450 Y89.800 E48.69314
G0 F9000 X95.764 Y89.258
;TYPE:SKIN
G1 F1800 X74.245 Y67.740 E50.21138
G0 F9000 X74.811 Y67.740
G1 F1800 X95.909 Y88.838 E51.69996
G0 F9000 X95.909 Y88.273
G1 F1800 X75.376 Y67.740 E53.14868
G0 F9000 X75.942 Y67.740
G1 F1800 X95.909 Y87.707 E54.55746
G0 F9000 X95.909 Y87.141
G1 F1800 X76.508 Y67.740 E55.92630
G0 F9000 X77.073 Y67.740
G1 F1800 X95.909 Y86.576 E57.25528
G0 F9000 X95.909 Y86.010
G1 F1800 X77.639 Y67.740 E58.54433
G0 F9000 X78.205 Y67.740
G1 F1800 X95.909 Y85.444 E59.79344
G0 F9000 X95.909 Y84.878
G1 F1800 X78.770 Y67.740 E61.00266
G0 F9000 X79.336 Y67.740
G1 F1800 X95.909 Y84.313 E62.17197
G0 F9000 X95.909 Y83.747
G1 F1800 X79.902 Y67.740 E63.30135
G0 F9000 X73.679 Y67.739
G1 F1800 X95.198 Y89.258 E64.81963
G0 F9000 X94.632 Y89.258
G1 F1800 X73.113 Y67.739 E66.33791
G0 F9000 X72.547 Y67.739
G1 F1800 X94.067 Y89.258 E67.85623
G0 F9000 X93.501 Y89.258
G1 F1800 X71.982 Y67.739 E69.37451
G0 F9000 X71.416 Y67.739
G1 F1800 X92.935 Y89.258 E70.89279
G0 F9000 X92.370 Y89.258
G1 F1800 X70.850 Y67.739 E72.41111
G0 F9000 X70.284 Y67.739
G1 F1800 X91.804 Y89.258 E73.92943
G0 F9000 X91.238 Y89.258
G1 F1800 X69.719 Y67.739 E75.44771
G0 F9000 X69.153 Y67.739
G1 F1800 X90.673 Y89.258 E76.96603
G0 F9000 X90.107 Y89.258
G1 F1800 X68.587 Y67.739 E78.48434
G0 F9000 X68.022 Y67.739
G1 F1800 X89.541 Y89.258 E80.00263
G0 F9000 X88.975 Y89.258
G1 F1800 X67.456 Y67.739 E81.52091
G0 F9000 X66.890 Y67.739
G1 F1800 X88.410 Y89.258 E83.03922
G0 F9000 X87.844 Y89.258
G1 F1800 X66.325 Y67.739 E84.55751
G0 F9000 X65.759 Y67.739
G1 F1800 X87.278 Y89.258 E86.07579
G0 F9000 X86.713 Y89.258
G1 F1800 X65.193 Y67.739 E87.59410
G0 F9000 X64.628 Y67.739
G1 F1800 X86.147 Y89.258 E89.11239
G0 F9000 X85.909 Y89.586
G1 F1800 X64.062 Y67.739 E90.65381
G0 F9000 X63.496 Y67.739
G1 F1800 X85.909 Y90.152 E92.23517
G0 F9000 X85.909 Y90.718
G1 F1800 X62.931 Y67.739 E93.85643
G0 F9000 X62.365 Y67.739
G1 F1800 X85.909 Y91.283 E95.51758
G0 F9000 X85.909 Y91.849
G1 F1800 X61.799 Y67.739 E97.21867
G0 F9000 X61.234 Y67.739
G1 F1800 X85.909 Y92.415 E98.95966
G0 F9000 X85.909 Y92.981
G1 F1800 X60.668 Y67.739 E100.74059
G0 F9000 X60.102 Y67.739
G1 F1800 X85.909 Y93.546 E102.56141
G0 F9000 X85.909 Y94.112
G1 F1800 X59.536 Y67.739 E104.42217
G0 F9000 X58.971 Y67.739
G1 F1800 X80.491 Y89.259 E105.94052
G0 F9000 X80.739 Y89.507
G1 F1800 X85.909 Y94.678 E106.30533
G0 F9000 X85.909 Y95.243
G1 F1800 X80.739 Y90.073 E106.67010
G0 F9000 X80.739 Y90.639
G1 F1800 X85.909 Y95.809 E107.03487
G0 F9000 X85.793 Y96.259
G1 F1800 X80.739 Y91.204 E107.39149
G0 F9000 X80.739 Y91.770
G1 F1800 X85.228 Y96.259 E107.70821
G0 F9000 X84.662 Y96.259
G1 F1800 X80.739 Y92.336 E107.98500
G0 F9000 X80.739 Y92.901
G1 F1800 X84.096 Y96.259 E108.22189
G0 F9000 X83.531 Y96.259
G1 F1800 X80.739 Y93.467 E108.41888
G0 F9000 X80.739 Y94.033
G1 F1800 X82.965 Y96.259 E108.57594
G0 F9000 X82.399 Y96.259
G1 F1800 X80.739 Y94.598 E108.69310
G0 F9000 X80.739 Y95.164
G1 F1800 X81.834 Y96.259 E108.77036
G0 F9000 X81.268 Y96.259
G1 F1800 X80.739 Y95.730 E108.80768
G0 F9000 X86.109 Y89.459
G0 X95.909 Y83.181
G1 F1800 X80.468 Y67.740 E109.89713
G0 F9000 X81.033 Y67.740
G1 F1800 X95.909 Y82.616 E110.94671
G0 F9000 X95.909 Y82.050
G1 F1800 X81.599 Y67.740 E111.95636
G0 F9000 X82.165 Y67.740
G1 F1800 X95.909 Y81.484 E112.92607
G0 F9000 X95.909 Y80.919
G1 F1800 X82.730 Y67.740 E113.85592
G0 F9000 X83.296 Y67.740
G1 F1800 X95.909 Y80.353 E114.74583
G0 F9000 X95.909 Y79.787
G1 F1800 X83.862 Y67.740 E115.59581
G0 F9000 X84.427 Y67.740
G1 F1800 X95.909 Y79.222 E116.40593
G0 F9000 X95.909 Y78.656
G1 F1800 X84.993 Y67.740 E117.17611
G0 F9000 X85.559 Y67.740
G1 F1800 X95.909 Y78.090 E117.90636
G0 F9000 X95.909 Y77.525
G1 F1800 X86.124 Y67.740 E118.59675
G0 F9000 X86.690 Y67.740
G1 F1800 X95.909 Y76.959 E119.24720
G0 F9000 X95.909 Y76.393
G1 F1800 X87.256 Y67.740 E119.85771
G0 F9000 X87.821 Y67.740
G1 F1800 X95.909 Y75.828 E120.42837
G0 F9000 X95.909 Y75.262
G1 F1800 X88.387 Y67.740 E120.95908
G0 F9000 X88.953 Y67.740
G1 F1800 X95.909 Y74.696 E121.44987
G0 F9000 X95.909 Y74.130
G1 F1800 X89.519 Y67.740 E121.90072
G0 F9000 X90.084 Y67.740
G1 F1800 X95.909 Y73.565 E122.31170
G0 F9000 X95.909 Y72.999
G1 F1800 X90.650 Y67.740 E122.68275
G0 F9000 X91.216 Y67.740
G1 F1800 X95.909 Y72.433 E123.01387
G0 F9000 X95.909 Y71.868
G1 F1800 X91.781 Y67.740 E123.30512
G0 F9000 X92.347 Y67.740
G1 F1800 X95.909 Y71.302 E123.55644
G0 F9000 X95.909 Y70.736
G1 F1800 X92.913 Y67.740 E123.76782
G0 F9000 X93.478 Y67.740
G1 F1800 X95.909 Y70.171 E123.93934
G0 F9000 X95.909 Y69.605
G1 F1800 X94.044 Y67.740 E124.07093
G0 F9000 X94.610 Y67.740
G1 F1800 X95.909 Y69.039 E124.16258
G0 F9000 X95.909 Y68.474
G1 F1800 X95.175 Y67.740 E124.21437
G0 F9000 X95.741 Y67.740
G1 F1800 X95.909 Y67.908 E124.22622
G0 F9000 X79.925 Y89.259
G1 F1800 X58.405 Y67.739 E125.74457
G0 F9000 X57.839 Y67.739
G1 F1800 X79.360 Y89.259 E127.26296
G0 F9000 X78.794 Y89.259
G1 F1800 X57.274 Y67.739 E128.78131
G0 F9000 X56.708 Y67.739
G1 F1800 X78.228 Y89.259 E130.29967
G0 F9000 X77.662 Y89.259
G1 F1800 X56.142 Y67.739 E131.81802
G0 F9000 X55.577 Y67.739
G1 F1800 X77.097 Y89.259 E133.33637
G0 F9000 X76.531 Y89.259
G1 F1800 X55.011 Y67.739 E134.85472
G0 F9000 X54.445 Y67.739
G1 F1800 X75.965 Y89.259 E136.37307
G0 F9000 X75.400 Y89.259
G1 F1800 X53.880 Y67.739 E137.89143
G0 F9000 X53.314 Y67.739
G1 F1800 X74.834 Y89.259 E139.40978
G0 F9000 X74.268 Y89.259
G1 F1800 X52.748 Y67.739 E140.92813
G0 F9000 X52.183 Y67.739
G1 F1800 X73.703 Y89.259 E142.44648
G0 F9000 X73.137 Y89.259
G1 F1800 X52.089 Y68.211 E143.93153
G0 F9000 X52.089 Y68.776
G1 F1800 X72.571 Y89.259 E145.37668
G0 F9000 X72.006 Y89.259
G1 F1800 X52.089 Y69.342 E146.78194
G0 F9000 X52.089 Y69.908
G1 F1800 X71.440 Y89.259 E148.14725
G0 F9000 X70.874 Y89.259
G1 F1800 X52.089 Y70.473 E149.47267
G0 F9000 X52.089 Y71.039
G1 F1800 X70.309 Y89.259 E150.75819
G0 F9000 X69.743 Y89.259
G1 F1800 X52.089 Y71.605 E152.00378
G0 F9000 X52.089 Y72.170
G1 F1800 X69.177 Y89.259 E153.20946
G0 F9000 X68.611 Y89.259
G1 F1800 X52.089 Y72.736 E154.37521
G0 F9000 X52.089 Y73.302
G1 F1800 X68.046 Y89.259 E155.50107
G0 F9000 X67.480 Y89.259
G1 F1800 X52.089 Y73.867 E156.58702
G0 F9000 X52.089 Y74.433
G1 F1800 X67.259 Y89.604 E157.65738
G0 F9000 X67.259 Y90.170
G1 F1800 X52.089 Y74.999 E158.72774
G0 F9000 X52.089 Y75.564
G1 F1800 X67.259 Y90.735 E159.79810
G0 F9000 X67.259 Y91.301
G1 F1800 X52.089 Y76.130 E160.86846
G0 F9000 X52.089 Y76.696
G1 F1800 X67.259 Y91.867 E161.93882
G0 F9000 X67.259 Y92.432
G1 F1800 X52.089 Y77.262 E163.00915
G0 F9000 X52.089 Y77.827
G1 F1800 X67.259 Y92.998 E164.07951
G0 F9000 X67.259 Y93.564
G1 F1800 X52.089 Y78.393 E165.14987
G0 F9000 X52.089 Y78.959
G1 F1800 X67.259 Y94.130 E166.22023
G0 F9000 X67.259 Y94.695
G1 F1800 X62.088 Y89.524 E166.58507
G0 F9000 X61.823 Y89.258
G1 F1800 X52.089 Y79.524 E167.27186
G0 F9000 X52.089 Y80.090
G1 F1800 X61.257 Y89.258 E167.91871
G0 F9000 X60.691 Y89.258
G1 F1800 X52.089 Y80.656 E168.52563
G0 F9000 X52.089 Y81.221
G1 F1800 X60.125 Y89.258 E169.09265
G0 F9000 X61.890 Y89.459
G0 X62.088 Y90.090
G1 F1800 X67.259 Y95.261 E169.45749
G0 F9000 X67.259 Y95.827
G1 F1800 X62.088 Y90.656 E169.82233
G0 F9000 X62.088 Y91.221
G1 F1800 X67.126 Y96.259 E170.17779
G0 F9000 X66.560 Y96.259
G1 F1800 X62.088 Y91.787 E170.49331
G0 F9000 X62.088 Y92.353
G1 F1800 X65.994 Y96.259 E170.76890
G0 F9000 X65.429 Y96.259
G1 F1800 X62.088 Y92.918 E171.00463
G0 F9000 X62.088 Y93.484
G1 F1800 X64.863 Y96.259 E171.20042
G0 F9000 X64.297 Y96.259
G1 F1800 X62.088 Y94.050 E171.35628
G0 F9000 X62.088 Y94.615
G1 F1800 X63.732 Y96.259 E171.47227
G0 F9000 X63.166 Y96.259
G1 F1800 X62.088 Y95.181 E171.54833
G0 F9000 X62.088 Y95.747
G1 F1800 X62.600 Y96.259 E171.58445
G0 F9000 X61.890 Y89.459
G0 X59.560 Y89.258
G1 F1800 X52.089 Y81.787 E172.11157
G0 F9000 X52.089 Y82.353
G1 F1800 X58.994 Y89.258 E172.59876
G0 F9000 X58.428 Y89.258
G1 F1800 X52.089 Y82.918 E173.04604
G0 F9000 X52.089 Y83.484
G1 F1800 X57.863 Y89.258 E173.45343
G0 F9000 X57.297 Y89.258
G1 F1800 X52.089 Y84.050 E173.82088
G0 F9000 X52.089 Y84.615
G1 F1800 X56.731 Y89.258 E174.14844
G0 F9000 X56.166 Y89.258
G1 F1800 X52.089 Y85.181 E174.43609
G0 F9000 X52.089 Y85.747
G1 F1800 X55.600 Y89.258 E174.68381
G0 F9000 X55.034 Y89.258
G1 F1800 X52.089 Y86.312 E174.89163
G0 F9000 X52.089 Y86.878
G1 F1800 X54.469 Y89.258 E175.05955
G0 F9000 X53.903 Y89.258
G1 F1800 X52.089 Y87.444 E175.18754
G0 F9000 X52.089 Y88.010
G1 F1800 X53.337 Y89.258 E175.27559
G0 F9000 X52.772 Y89.258
G1 F1800 X52.089 Y88.575 E175.32378
G0 F9000 X52.089 Y89.141
G1 F1800 X52.206 Y89.258 E175.33204
G1 F2400 E171.33204
G0 F9000 X51.949 Y103.600
;TYPE:WALL-INNER
G1 F2400 E175.33204
G1 F1800 X96.050 Y103.600 E177.53225
G1 X96.050 Y125.400 E178.61985
G1 X86.050 Y125.400 E179.11876
G1 X86.050 Y132.400 E179.46799
G1 X80.600 Y132.400 E179.73989
G1 X80.600 Y125.400 E180.08912
G1 X67.400 Y125.400 E180.74767
G1 X67.400 Y132.400 E181.09690
G1 X61.949 Y132.400 E181.36885
G1 X61.949 Y125.400 E181.71808
G1 X51.949 Y125.400 E182.21699
G1 X51.949 Y103.600 E183.30459
G0 F9000 X51.549 Y103.200
;TYPE:WALL-OUTER
G1 F1800 X96.450 Y103.200 E185.54471
G1 X96.450 Y125.800 E186.67223
G1 X86.450 Y125.800 E187.17113
G1 X86.450 Y132.800 E187.52036
G1 X80.200 Y132.800 E187.83218
G1 X80.200 Y125.800 E188.18141
G1 X67.800 Y125.800 E188.80005
G1 X67.800 Y132.800 E189.14928
G1 X61.549 Y132.800 E189.46114
G1 X61.549 Y125.800 E189.81038
G1 X51.549 Y125.800 E190.30928
G1 X51.549 Y103.200 E191.43680
G0 F9000 X52.089 Y103.849
;TYPE:SKIN
G1 F1800 X73.498 Y125.259 E192.94735
G0 F9000 X72.933 Y125.259
G1 F1800 X52.089 Y104.414 E194.41804
G0 F9000 X52.089 Y104.980
G1 F1800 X72.367 Y125.259 E195.84880
G0 F9000 X71.801 Y125.259
G1 F1800 X52.089 Y105.546 E197.23962
G0 F9000 X52.089 Y106.111
G1 F1800 X71.236 Y125.259 E198.59058
G0 F9000 X70.670 Y125.259
G1 F1800 X52.089 Y106.677 E199.90161
G0 F9000 X52.089 Y107.243
G1 F1800 X70.104 Y125.259 E201.17270
G0 F9000 X69.539 Y125.259
G1 F1800 X52.089 Y107.809 E202.40389
G0 F9000 X52.089 Y108.374
G1 F1800 X68.973 Y125.259 E203.59518
G0 F9000 X68.407 Y125.259
G1 F1800 X52.089 Y108.940 E204.74654
G0 F9000 X52.089 Y109.506
G1 F1800 X67.841 Y125.259 E205.85797
G0 F9000 X67.276 Y125.259
G1 F1800 X52.089 Y110.071 E206.92953
G0 F9000 X52.089 Y110.637
G1 F1800 X67.259 Y125.808 E207.99989
G0 F9000 X67.259 Y126.374
G1 F1800 X52.089 Y111.203 E209.07025
G0 F9000 X52.089 Y111.768
G1 F1800 X67.259 Y126.939 E210.14061
G0 F9000 X67.259 Y127.505
G1 F1800 X52.089 Y112.334 E211.21097
G0 F9000 X52.089 Y112.900
G1 F1800 X67.259 Y128.071 E212.28133
G0 F9000 X67.259 Y128.636
G1 F1800 X52.089 Y113.465 E213.35169
G0 F9000 X52.089 Y114.031
G1 F1800 X67.259 Y129.202 E214.42205
G0 F9000 X67.259 Y129.768
G1 F1800 X52.089 Y114.597 E215.49241
G0 F9000 X52.089 Y115.162
G1 F1800 X67.259 Y130.333 E216.56277
G0 F9000 X67.259 Y130.899
G1 F1800 X62.088 Y125.728 E216.92762
G0 F9000 X62.088 Y126.294
G1 F1800 X67.259 Y131.465 E217.29246
G0 F9000 X67.259 Y132.030
G1 F1800 X62.088 Y126.859 E217.65730
G0 F9000 X62.088 Y127.425
G1 F1800 X66.921 Y132.258 E217.99829
G0 F9000 X66.356 Y132.258
G1 F1800 X62.088 Y127.991 E218.29939
G0 F9000 X62.088 Y128.556
G1 F1800 X65.790 Y132.258 E218.56058
G0 F9000 X65.224 Y132.258
G1 F1800 X62.088 Y129.122 E218.78185
G0 F9000 X62.088 Y129.688
G1 F1800 X64.659 Y132.258 E218.96321
G0 F9000 X64.093 Y132.258
G1 F1800 X62.088 Y130.254 E219.10464
G0 F9000 X62.088 Y130.819
G1 F1800 X63.527 Y132.258 E219.20617
G0 F9000 X62.962 Y132.258
G1 F1800 X62.088 Y131.385 E219.26780
G0 F9000 X62.088 Y131.951
G1 F1800 X62.396 Y132.258 E219.28949
G0 F9000 X61.890 Y125.459
G0 X61.619 Y125.259
G1 F1800 X52.089 Y115.728 E219.96192
G0 F9000 X52.089 Y116.294
G1 F1800 X61.053 Y125.259 E220.59441
G0 F9000 X60.488 Y125.259
G1 F1800 X52.089 Y116.860 E221.18701
G0 F9000 X52.089 Y117.425
G1 F1800 X59.922 Y125.259 E221.73971
G0 F9000 X59.356 Y125.259
G1 F1800 X52.089 Y117.991 E222.25247
G0 F9000 X52.089 Y118.557
G1 F1800 X58.790 Y125.259 E222.72529
G0 F9000 X58.225 Y125.259
G1 F1800 X52.089 Y119.122 E223.15826
G0 F9000 X52.089 Y119.688
G1 F1800 X57.659 Y125.259 E223.55129
G0 F9000 X57.093 Y125.259
G1 F1800 X52.089 Y120.254 E223.90438
G0 F9000 X52.089 Y120.819
G1 F1800 X56.528 Y125.259 E224.21761
G0 F9000 X55.962 Y125.259
G1 F1800 X52.089 Y121.385 E224.49091
G0 F9000 X52.089 Y121.951
G1 F1800 X55.396 Y125.259 E224.72427
G0 F9000 X54.831 Y125.259
G1 F1800 X52.089 Y122.516 E224.91777
G0 F9000 X52.089 Y123.082
G1 F1800 X54.265 Y125.259 E225.07133
G0 F9000 X53.699 Y125.259
G1 F1800 X52.089 Y123.648 E225.18496
G0 F9000 X52.089 Y124.213
G1 F1800 X53.134 Y125.259 E225.25873
G0 F9000 X52.568 Y125.259
G1 F1800 X52.089 Y124.779 E225.29256
G0 F9000 X52.544 Y103.738
G1 F1800 X74.064 Y125.259 E226.81095
G0 F9000 X74.630 Y125.259
G1 F1800 X53.110 Y103.738 E228.32933
G0 F9000 X53.675 Y103.738
G1 F1800 X75.195 Y125.259 E229.84772
G0 F9000 X75.761 Y125.259
G1 F1800 X54.241 Y103.738 E231.36611
G0 F9000 X54.807 Y103.738
G1 F1800 X76.327 Y125.259 E232.88450
G0 F9000 X76.892 Y125.259
G1 F1800 X55.372 Y103.738 E234.40288
G0 F9000 X55.938 Y103.738
G1 F1800 X77.458 Y125.259 E235.92127
G0 F9000 X78.024 Y125.259
G1 F1800 X56.504 Y103.738 E237.43966
G0 F9000 X57.069 Y103.738
G1 F1800 X78.589 Y125.259 E238.95805
G0 F9000 X79.155 Y125.259
