;Generated with Cura_SteamEngine 15.01
; Default start code
G28 ; Home extruder
G1 Z15 F2000
M107 ; Turn off fan
G90 ; Absolute positioning
M82 ; Extruder in absolute mode
M104 T0 S210
M190 S70
; Activate all used extruder
G92 E0 ; Reset extruder position
; Wait for all used extruders to reach temperature
M109 T0 S205 R210
;Layer count: 35
;LAYER:0
M107
G0 F9000 X135.150 Y133.800 Z0.300
;TYPE:SKIRT
G1 F1800 X186.849 Y133.800 E2.57927
G1 X186.849 Y163.200 E4.04605
G1 X176.849 Y163.200 E4.54495
G1 X176.849 Y170.200 E4.89418
G1 X170.200 Y170.200 E5.22590
G1 X170.200 Y170.800 E5.25583
G1 X151.800 Y170.800 E6.17381
G1 X151.800 Y170.200 E6.20375
G1 X145.150 Y170.200 E6.53552
G1 X145.150 Y163.200 E6.88475
G1 X135.150 Y163.200 E7.38365
G1 X135.150 Y133.800 E8.85042
G0 F9000 X134.849 Y133.800
G1 F1800 X134.849 Y163.200 E10.31719
G1 X124.850 Y163.200 E10.81605
G1 X124.850 Y169.800 E11.14532
G1 X134.849 Y169.800 E11.64417
G1 X134.849 Y199.200 E13.11095
G1 X124.850 Y199.200 E13.60980
G1 X124.850 Y206.200 E13.95903
G1 X118.200 Y206.200 E14.29080
G1 X118.200 Y206.800 E14.32073
G1 X99.800 Y206.800 E15.23871
G1 X99.800 Y206.200 E15.26865
G1 X93.149 Y206.200 E15.60047
G1 X93.149 Y199.200 E15.94970
G1 X83.149 Y199.200 E16.44860
G1 X83.149 Y169.800 E17.91537
G1 X93.149 Y169.800 E18.41427
G1 X93.149 Y163.200 E18.74355
G1 X83.149 Y163.200 E19.24245
G1 X83.149 Y133.800 E20.70922
G1 X134.849 Y133.800 E23.28855
G1 F2400 E19.28855
G0 F9000 X131.049 Y137.600
;TYPE:WALL-INNER
G1 F2400 E23.28855
G1 F1800 X131.049 Y159.400 E24.37615
G1 X121.050 Y159.400 E24.87501
G1 X121.050 Y166.400 E25.22424
G1 X115.600 Y166.400 E25.49614
G1 X115.600 Y159.400 E25.84537
G1 X102.400 Y159.400 E26.50392
G1 X102.400 Y166.400 E26.85315
G1 X96.949 Y166.400 E27.12510
G1 X96.949 Y159.400 E27.47433
G1 X86.949 Y159.400 E27.97324
G1 X86.949 Y137.600 E29.06084
G1 X131.049 Y137.600 E31.26100
G0 F9000 X131.449 Y137.200
;TYPE:WALL-OUTER
G1 F1800 X131.449 Y159.800 E32.38852
G1 X121.450 Y159.800 E32.88737
G1 X121.450 Y166.800 E33.23660
G1 X115.200 Y166.800 E33.54842
G1 X115.200 Y159.800 E33.89765
G1 X102.800 Y159.800 E34.51629
G1 X102.800 Y166.800 E34.86552
G1 X96.549 Y166.800 E35.17738
G1 X96.549 Y159.800 E35.52661
G1 X86.549 Y159.800 E36.02552
G1 X86.549 Y137.200 E37.15303
G1 X131.449 Y137.200 E39.39310
G0 F9000 X130.968 Y138.039
;TYPE:SKIN
G1 F1800 X130.608 Y137.679 E39.41850
G0 F9000 X130.042 Y137.679
G1 F1800 X130.968 Y138.605 E39.48384
G0 F9000 X130.968 Y139.171
G1 F1800 X129.476 Y137.679 E39.58911
G0 F9000 X128.911 Y137.679
G1 F1800 X130.968 Y139.737 E39.73428
G0 F9000 X130.968 Y140.302
G1 F1800 X128.345 Y137.679 E39.91934
G0 F9000 X127.779 Y137.679
G1 F1800 X130.968 Y140.868 E40.14434
G0 F9000 X130.968 Y141.434
G1 F1800 X127.214 Y137.679 E40.40924
G0 F9000 X126.648 Y137.679
G1 F1800 X130.968 Y141.999 E40.71404
G0 F9000 X130.968 Y142.565
G1 F1800 X126.082 Y137.679 E41.05878
G0 F9000 X125.517 Y137.679
G1 F1800 X130.968 Y143.131 E41.44341
G0 F9000 X130.968 Y143.696
G1 F1800 X124.951 Y137.679 E41.86794
G0 F9000 X124.385 Y137.679
G1 F1800 X130.968 Y144.262 E42.33241
G0 F9000 X130.968 Y144.828
G1 F1800 X123.820 Y137.679 E42.83677
G0 F9000 X123.254 Y137.679
G1 F1800 X130.968 Y145.393 E43.38104
G0 F9000 X130.968 Y145.959
G1 F1800 X122.688 Y137.679 E43.96524
G0 F9000 X122.122 Y137.679
G1 F1800 X130.968 Y146.525 E44.58937
G0 F9000 X130.968 Y147.090
G1 F1800 X121.557 Y137.679 E45.25337
G0 F9000 X120.991 Y137.679
G1 F1800 X130.968 Y147.656 E45.95730
G0 F9000 X130.968 Y148.222
G1 F1800 X120.425 Y137.679 E46.70116
G0 F9000 X119.860 Y137.679
G1 F1800 X130.968 Y148.787 E47.48489
G0 F9000 X130.968 Y149.353
G1 F1800 X119.294 Y137.679 E48.30856
G0 F9000 X118.728 Y137.679
G1 F1800 X130.968 Y149.919 E49.17215
G0 F9000 X130.968 Y150.485
G1 F1800 X118.163 Y137.679 E50.07565
G0 F9000 X117.597 Y137.679
G1 F1800 X130.968 Y151.050 E51.01905
G0 F9000 X130.968 Y151.616
G1 F1800 X117.031 Y137.679 E52.00238
G0 F9000 X116.466 Y137.679
G1 F1800 X130.968 Y152.182 E53.02561
G0 F9000 X130.968 Y152.747
G1 F1800 X115.900 Y137.679 E54.08874
G0 F9000 X115.334 Y137.679
G1 F1800 X130.968 Y153.313 E55.19180
G0 F9000 X130.968 Y153.879
G1 F1800 X114.769 Y137.679 E56.33476
G0 F9000 X114.203 Y137.679
G1 F1800 X130.968 Y154.444 E57.51762
G0 F9000 X130.968 Y155.010
G1 F1800 X113.637 Y137.679 E58.74042
G0 F9000 X113.072 Y137.679
G1 F1800 X130.968 Y155.576 E60.00311
G0 F9000 X130.968 Y156.141
G1 F1800 X112.506 Y137.679 E61.30571
G0 F9000 X111.940 Y137.679
G1 F1800 X130.968 Y156.707 E62.64824
G0 F9000 X130.968 Y157.273
G1 F1800 X111.374 Y137.679 E64.03070
G0 F9000 X110.809 Y137.679
G1 F1800 X130.968 Y157.838 E65.45302
G0 F9000 X130.968 Y158.404
G1 F1800 X110.243 Y137.679 E66.91528
G0 F9000 X109.677 Y137.679
G1 F1800 X130.968 Y158.970 E68.41748
G0 F9000 X130.751 Y159.318
G1 F1800 X109.112 Y137.679 E69.94423
G0 F9000 X108.546 Y137.679
G1 F1800 X130.186 Y159.318 E71.47101
G0 F9000 X129.620 Y159.318
G1 F1800 X107.980 Y137.679 E72.99780
G0 F9000 X107.415 Y137.679
G1 F1800 X129.054 Y159.318 E74.52454
G0 F9000 X128.489 Y159.318
G1 F1800 X106.849 Y137.679 E76.05133
G0 F9000 X106.283 Y137.679
G1 F1800 X127.923 Y159.318 E77.57811
G0 F9000 X127.357 Y159.318
G1 F1800 X105.718 Y137.679 E79.10486
G0 F9000 X105.152 Y137.679
G1 F1800 X126.792 Y159.318 E80.63164
G0 F9000 X126.226 Y159.318
G1 F1800 X104.586 Y137.679 E82.15843
G0 F9000 X104.021 Y137.679
G1 F1800 X125.660 Y159.318 E83.68517
G0 F9000 X125.094 Y159.318
G1 F1800 X103.455 Y137.679 E85.21192
G0 F9000 X102.889 Y137.679
G1 F1800 X124.529 Y159.318 E86.73871
G0 F9000 X123.963 Y159.318
G1 F1800 X102.324 Y137.679 E88.26545
G0 F9000 X101.758 Y137.679
G1 F1800 X123.397 Y159.318 E89.79220
G0 F9000 X122.832 Y159.318
G1 F1800 X101.192 Y137.679 E91.31899
G0 F9000 X100.626 Y137.679
G1 F1800 X122.266 Y159.318 E92.84577
G0 F9000 X121.700 Y159.318
G1 F1800 X100.061 Y137.679 E94.37252
G0 F9000 X99.495 Y137.679
G1 F1800 X121.135 Y159.318 E95.89930
G0 F9000 X120.969 Y159.719
G1 F1800 X98.929 Y137.679 E97.45434
G0 F9000 X98.364 Y137.679
G1 F1800 X120.969 Y160.284 E99.04925
G0 F9000 X120.969 Y160.850
G1 F1800 X97.798 Y137.679 E100.68409
G0 F9000 X97.232 Y137.679
G1 F1800 X120.969 Y161.416 E102.35886
G0 F9000 X120.969 Y161.981
G1 F1800 X96.667 Y137.679 E104.07350
G0 F9000 X96.101 Y137.679
G1 F1800 X120.969 Y162.547 E105.82807
G0 F9000 X120.969 Y163.113
G1 F1800 X95.535 Y137.679 E107.62258
G0 F9000 X94.970 Y137.679
G1 F1800 X120.969 Y163.678 E109.45695
G0 F9000 X120.969 Y164.244
G1 F1800 X94.404 Y137.679 E111.33125
G0 F9000 X93.838 Y137.679
G1 F1800 X115.479 Y159.319 E112.85810
G0 F9000 X115.679 Y159.520
G1 F1800 X120.969 Y164.810 E113.23134
G0 F9000 X120.969 Y165.376
G1 F1800 X115.679 Y160.086 E113.60458
G0 F9000 X115.679 Y160.651
G1 F1800 X120.969 Y165.941 E113.97782
G0 F9000 X120.781 Y166.319
G1 F1800 X115.679 Y161.217 E114.33779
G0 F9000 X115.679 Y161.783
G1 F1800 X120.215 Y166.319 E114.65783
G0 F9000 X119.650 Y166.319
G1 F1800 X115.679 Y162.348 E114.93801
G0 F9000 X115.679 Y162.914
G1 F1800 X119.084 Y166.319 E115.17825
G0 F9000 X118.518 Y166.319
G1 F1800 X115.679 Y163.480 E115.37856
G0 F9000 X115.679 Y164.045
G1 F1800 X117.953 Y166.319 E115.53900
G0 F9000 X117.387 Y166.319
G1 F1800 X115.679 Y164.611 E115.65951
G0 F9000 X115.679 Y165.177
G1 F1800 X116.821 Y166.319 E115.74008
G0 F9000 X116.256 Y166.319
G1 F1800 X115.679 Y165.743 E115.78076
G0 F9000 X115.541 Y159.459
G0 X102.459 Y159.459
G0 X102.320 Y165.960
G1 F1800 X97.028 Y160.668 E116.15414
G0 F9000 X97.028 Y161.233
G1 F1800 X102.113 Y166.319 E116.51294
G0 F9000 X101.548 Y166.319
G1 F1800 X97.028 Y161.799 E116.83186
G0 F9000 X97.028 Y162.365
G1 F1800 X100.982 Y166.319 E117.11083
G0 F9000 X100.416 Y166.319
G1 F1800 X97.028 Y162.930 E117.34991
G0 F9000 X97.028 Y163.496
G1 F1800 X99.851 Y166.319 E117.54909
G0 F9000 X99.285 Y166.319
G1 F1800 X97.028 Y164.062 E117.70833
G0 F9000 X97.028 Y164.627
G1 F1800 X98.719 Y166.319 E117.82767
G0 F9000 X98.154 Y166.319
G1 F1800 X97.028 Y165.193 E117.90712
G0 F9000 X97.028 Y165.759
G1 F1800 X97.588 Y166.319 E117.94663
G0 F9000 X102.320 Y165.394
G1 F1800 X97.028 Y160.102 E118.32001
G0 F9000 X97.028 Y159.536
G1 F1800 X102.320 Y164.828 E118.69339
G0 F9000 X102.320 Y164.263
G1 F1800 X87.029 Y148.971 E119.77229
G0 F9000 X87.029 Y148.406
G1 F1800 X102.320 Y163.697 E120.85115
G0 F9000 X102.320 Y163.131
G1 F1800 X87.029 Y147.840 E121.93001
G0 F9000 X87.029 Y147.274
G1 F1800 X102.320 Y162.565 E123.00887
G0 F9000 X102.320 Y162.000
G1 F1800 X87.029 Y146.709 E124.08774
G0 F9000 X87.029 Y146.143
G1 F1800 X102.320 Y161.434 E125.16660
G0 F9000 X102.320 Y160.868
G1 F1800 X87.029 Y145.577 E126.24546
G0 F9000 X87.029 Y145.012
G1 F1800 X102.320 Y160.303 E127.32433
G0 F9000 X102.320 Y159.737
G1 F1800 X87.029 Y144.446 E128.40319
G0 F9000 X87.029 Y143.880
G1 F1800 X102.468 Y159.319 E129.49249
G0 F9000 X103.033 Y159.319
G1 F1800 X87.029 Y143.314 E130.62170
G0 F9000 X87.029 Y142.749
G1 F1800 X103.599 Y159.319 E131.79080
G0 F9000 X104.165 Y159.319
G1 F1800 X87.029 Y142.183 E132.99984
G0 F9000 X87.029 Y141.617
G1 F1800 X104.730 Y159.319 E134.24877
G0 F9000 X105.296 Y159.319
G1 F1800 X87.029 Y141.052 E135.53761
G0 F9000 X87.029 Y140.486
G1 F1800 X105.862 Y159.319 E136.86638
G0 F9000 X106.428 Y159.319
G1 F1800 X87.029 Y139.920 E138.23508
G0 F9000 X87.029 Y139.355
G1 F1800 X106.993 Y159.319 E139.64365
G0 F9000 X107.559 Y159.319
G1 F1800 X87.029 Y138.789 E141.09215
G0 F9000 X87.029 Y138.223
G1 F1800 X108.125 Y159.319 E142.58059
G0 F9000 X108.690 Y159.319
G1 F1800 X87.050 Y137.679 E144.10741
G0 F9000 X87.616 Y137.679
G1 F1800 X109.256 Y159.319 E145.63423
G0 F9000 X109.822 Y159.319
G1 F1800 X88.181 Y137.679 E147.16108
G0 F9000 X88.747 Y137.679
G1 F1800 X110.387 Y159.319 E148.68790
G0 F9000 X110.953 Y159.319
G1 F1800 X89.313 Y137.679 E150.21472
G0 F9000 X89.878 Y137.679
G1 F1800 X111.519 Y159.319 E151.74157
G0 F9000 X112.084 Y159.319
G1 F1800 X90.444 Y137.679 E153.26839
G0 F9000 X91.010 Y137.679
G1 F1800 X112.650 Y159.319 E154.79521
G0 F9000 X113.216 Y159.319
G1 F1800 X91.575 Y137.679 E156.32207
G0 F9000 X92.141 Y137.679
G1 F1800 X113.781 Y159.319 E157.84888
G0 F9000 X114.347 Y159.319
G1 F1800 X92.707 Y137.679 E159.37570
G0 F9000 X93.273 Y137.679
G1 F1800 X114.913 Y159.319 E160.90252
G0 F9000 X96.811 Y159.319
G1 F1800 X87.029 Y149.537 E161.59270
G0 F9000 X87.029 Y150.103
G1 F1800 X96.245 Y159.319 E162.24293
G0 F9000 X95.680 Y159.319
G1 F1800 X87.029 Y150.668 E162.85331
G0 F9000 X87.029 Y151.234
G1 F1800 X95.114 Y159.319 E163.42375
G0 F9000 X94.548 Y159.319
G1 F1800 X87.029 Y151.800 E163.95426
G0 F9000 X87.029 Y152.365
G1 F1800 X93.982 Y159.319 E164.44486
G0 F9000 X93.417 Y159.319
G1 F1800 X87.029 Y152.931 E164.89557
G0 F9000 X87.029 Y153.497
G1 F1800 X92.851 Y159.319 E165.30634
G0 F9000 X92.285 Y159.319
G1 F1800 X87.029 Y154.063 E165.67718
G0 F9000 X87.029 Y154.628
G1 F1800 X91.720 Y159.319 E166.00816
G0 F9000 X91.154 Y159.319
G1 F1800 X87.029 Y155.194 E166.29920
G0 F9000 X87.029 Y155.760
G1 F1800 X90.588 Y159.319 E166.55031
G0 F9000 X90.023 Y159.319
G1 F1800 X87.029 Y156.325 E166.76155
G0 F9000 X87.029 Y156.891
G1 F1800 X89.457 Y159.319 E166.93286
G0 F9000 X88.891 Y159.319
G1 F1800 X87.029 Y157.457 E167.06423
G0 F9000 X87.029 Y158.022
G1 F1800 X88.326 Y159.319 E167.15574
G0 F9000 X87.760 Y159.319
G1 F1800 X87.029 Y158.588 E167.20732
G0 F9000 X87.029 Y159.154
G1 F1800 X87.194 Y159.319 E167.21896
G1 F2400 E163.21896
G0 F9000 X86.949 Y173.600
;TYPE:WALL-INNER
G1 F2400 E167.21896
G1 F1800 X131.049 Y173.600 E169.41912
G1 X131.049 Y195.400 E170.50672
G1 X121.050 Y195.400 E171.00558
G1 X121.050 Y202.400 E171.35481
G1 X115.600 Y202.400 E171.62671
G1 X115.600 Y195.400 E171.97594
G1 X102.400 Y195.400 E172.63449
G1 X102.400 Y202.400 E172.98372
G1 X96.949 Y202.400 E173.25567
G1 X96.949 Y195.400 E173.60491
G1 X86.949 Y195.400 E174.10381
G1 X86.949 Y173.600 E175.19141
G0 F9000 X86.549 Y173.200
;TYPE:WALL-OUTER
G1 F1800 X131.449 Y173.200 E177.43148
G1 X131.449 Y195.800 E178.55900
G1 X121.450 Y195.800 E179.05785
G1 X121.450 Y202.800 E179.40709
G1 X115.200 Y202.800 E179.71890
G1 X115.200 Y195.800 E180.06813
G1 X102.800 Y195.800 E180.68677
G1 X102.800 Y202.800 E181.03600
G1 X96.549 Y202.800 E181.34786
G1 X96.549 Y195.800 E181.69710
G1 X86.549 Y195.800 E182.19600
G1 X86.549 Y173.200 E183.32352
G0 F9000 X87.028 Y173.861
;TYPE:SKIN
G1 F1800 X108.486 Y195.319 E184.83749
G0 F9000 X107.920 Y195.319
G1 F1800 X87.028 Y174.426 E186.31157
G0 F9000 X87.028 Y174.992
G1 F1800 X107.355 Y195.319 E187.74575
G0 F9000 X106.789 Y195.319
G1 F1800 X87.028 Y175.558 E189.14000
G0 F9000 X87.028 Y176.124
G1 F1800 X106.223 Y195.319 E190.49431
G0 F9000 X105.658 Y195.319
G1 F1800 X87.028 Y176.689 E191.80876
G0 F9000 X87.028 Y177.255
G1 F1800 X105.092 Y195.319 E193.08327
G0 F9000 X104.526 Y195.319
G1 F1800 X87.028 Y177.821 E194.31785
G0 F9000 X87.028 Y178.386
G1 F1800 X103.960 Y195.319 E195.51253
G0 F9000 X103.395 Y195.319
G1 F1800 X87.028 Y178.952 E196.66731
G0 F9000 X87.028 Y179.518
G1 F1800 X102.829 Y195.319 E197.78215
G0 F9000 X102.320 Y195.375
G1 F1800 X87.028 Y180.083 E198.86109
G0 F9000 X87.028 Y180.649
G1 F1800 X102.320 Y195.941 E199.94002
G0 F9000 X102.320 Y196.507
G1 F1800 X87.028 Y181.215 E201.01895
G0 F9000 X87.028 Y181.780
G1 F1800 X102.320 Y197.072 E202.09789
G0 F9000 X102.320 Y197.638
G1 F1800 X87.028 Y182.346 E203.17682
G0 F9000 X87.028 Y182.912
G1 F1800 X102.320 Y198.204 E204.25575
G0 F9000 X102.320 Y198.769
G1 F1800 X87.028 Y183.477 E205.33469
G0 F9000 X87.028 Y184.043
G1 F1800 X102.320 Y199.335 E206.41362
G0 F9000 X102.320 Y199.901
G1 F1800 X87.028 Y184.609 E207.49255
G0 F9000 X87.028 Y185.175
G1 F1800 X102.320 Y200.466 E208.57145
G0 F9000 X102.320 Y201.032
G1 F1800 X97.028 Y195.740 E208.94483
G0 F9000 X97.028 Y196.306
G1 F1800 X102.320 Y201.598 E209.31821
G0 F9000 X102.320 Y202.163
G1 F1800 X97.028 Y196.871 E209.69159
G0 F9000 X97.028 Y197.437
G1 F1800 X101.909 Y202.318 E210.03597
G0 F9000 X101.343 Y202.318
G1 F1800 X97.028 Y198.003 E210.34041
G0 F9000 X97.028 Y198.569
G1 F1800 X100.778 Y202.318 E210.60496
G0 F9000 X100.212 Y202.318
G1 F1800 X97.028 Y199.134 E210.82961
G0 F9000 X97.028 Y199.700
G1 F1800 X99.646 Y202.318 E211.01432
G0 F9000 X99.081 Y202.318
G1 F1800 X97.028 Y200.266 E211.15914
G0 F9000 X97.028 Y200.831
G1 F1800 X98.515 Y202.318 E211.26406
G0 F9000 X97.949 Y202.318
G1 F1800 X97.028 Y201.397 E211.32904
G0 F9000 X97.028 Y201.963
G1 F1800 X97.384 Y202.318 E211.35412
G0 F9000 X96.890 Y195.459
G0 X96.607 Y195.319
G1 F1800 X87.028 Y185.740 E212.02997
G0 F9000 X87.028 Y186.306
G1 F1800 X96.041 Y195.319 E212.66589
G0 F9000 X95.475 Y195.319
G1 F1800 X87.028 Y186.872 E213.26187
G0 F9000 X87.028 Y187.437
G1 F1800 X94.909 Y195.319 E213.81795
G0 F9000 X94.344 Y195.319
G1 F1800 X87.028 Y188.003 E214.33413
G0 F9000 X87.028 Y188.569
G1 F1800 X93.778 Y195.319 E214.81038
G0 F9000 X93.212 Y195.319
G1 F1800 X87.028 Y189.134 E215.24673
G0 F9000 X87.028 Y189.700
G1 F1800 X92.647 Y195.319 E215.64318
G0 F9000 X92.081 Y195.319
G1 F1800 X87.028 Y190.266 E215.99970
G0 F9000 X87.028 Y190.831
G1 F1800 X91.515 Y195.319 E216.31632
G0 F9000 X90.950 Y195.319
G1 F1800 X87.028 Y191.397 E216.59303
G0 F9000 X87.028 Y191.963
G1 F1800 X90.384 Y195.319 E216.82982
G0 F9000 X89.818 Y195.319
G1 F1800 X87.028 Y192.528 E217.02670
G0 F9000 X87.028 Y193.094
G1 F1800 X89.253 Y195.319 E217.18369
G0 F9000 X88.687 Y195.319
G1 F1800 X87.028 Y193.660 E217.30074
G0 F9000 X87.028 Y194.225
G1 F1800 X88.121 Y195.319 E217.37789
G0 F9000 X87.556 Y195.319
G1 F1800 X87.028 Y194.791 E217.41515
G0 F9000 X87.412 Y173.679
G1 F1800 X109.052 Y195.319 E218.94196
G0 F9000 X109.617 Y195.319
